X: 14616
T: Gan Ainm
R: jig
M: 6/8
K: Dmajor
e|:fag fBc|dce def|gdB fdA|eAB cde|
fag fBc|dce dBA|GBe FAd|1 cBc d2 e:|2 cBc d2 E||
|:FAD GBG|AFE DEF|G2 G FED|CDE A,2 G|
FED BGd|cBc dAF|GFG Bed|1 cBc d2 E:|2 cBc d2 e||

